static/assets/images/icons/shared-fs.svg

<svg width="256" height="256" viewBox="0 0 256 256" fill="none" xmlns="http://www.w3.org/2000/svg">
<path fill-rule="evenodd" clip-rule="evenodd" d="M210.286 65.6923H117.029L101.257 43.5385C99.9797 41.8188 98.3232 40.4231 96.4189 39.4618C94.5146 38.5005 92.4148 38 90.2857 38H45.7143C42.077 38 38.5887 39.4588 36.0168 42.0554C33.4449 44.6521 32 48.1739 32 51.8462V204.154C32 207.826 33.4449 211.348 36.0168 213.945C38.5887 216.541 42.077 218 45.7143 218H210.286C213.923 218 217.411 216.541 219.983 213.945C222.555 211.348 224 207.826 224 204.154V79.5385C224 75.8662 222.555 72.3444 219.983 69.7478C217.411 67.1511 213.923 65.6923 210.286 65.6923ZM130.109 181.989C132.246 178.441 133.093 174.256 132.503 170.149C132.35 169.011 132.09 167.889 131.724 166.801L143.82 156.143C147.812 159.264 152.639 161.114 157.682 161.456C162.724 161.798 167.754 160.616 172.126 158.062C176.497 155.508 180.012 151.698 182.221 147.12C184.429 142.542 185.229 137.405 184.52 132.366C183.811 127.326 181.624 122.615 178.239 118.836C174.854 115.056 170.426 112.38 165.522 111.15C160.617 109.92 155.46 110.192 150.71 111.932C145.96 113.671 141.834 116.799 138.861 120.914L104.883 108.99C105.11 104.698 103.796 100.467 101.18 97.0707C98.564 93.6745 94.8215 91.34 90.6367 90.4939C86.4519 89.6479 82.1045 90.347 78.3895 92.4633C74.6745 94.5796 71.8401 97.9718 70.4047 102.019C68.9694 106.067 69.0289 110.5 70.5724 114.507C72.116 118.514 75.0404 121.828 78.8108 123.842C82.5813 125.856 86.9459 126.437 91.1065 125.477C95.267 124.518 98.9455 122.082 101.469 118.616L134.636 130.243C133.943 133.292 133.813 136.444 134.253 139.54C134.686 142.637 135.681 145.628 137.187 148.364L125.738 158.516C122.47 155.99 118.431 154.685 114.312 154.826C110.194 154.968 106.252 156.546 103.162 159.291C100.072 162.036 98.0249 165.777 97.3722 169.874C96.7194 173.971 97.5011 178.169 99.5835 181.75C101.666 185.331 104.919 188.071 108.787 189.503C112.655 190.934 116.897 190.967 120.787 189.597C124.676 188.226 127.972 185.537 130.109 181.989Z" fill="black"/>
</svg>

<svg xmlns="http://www.w3.org/2000/svg" viewBox="0 0 256 256"><path fill-rule="evenodd" d="M210.286 65.692h-93.257L101.257 43.54a13.74 13.74 0 0 0-4.838-4.077A13.6 13.6 0 0 0 90.286 38H45.714a13.65 13.65 0 0 0-9.697 4.055A13.9 13.9 0 0 0 32 51.846v152.308c0 3.672 1.445 7.194 4.017 9.791A13.65 13.65 0 0 0 45.714 218h164.572a13.65 13.65 0 0 0 9.697-4.055 13.92 13.92 0 0 0 4.017-9.791V79.539c0-3.673-1.445-7.195-4.017-9.791a13.65 13.65 0 0 0-9.697-4.056M130.109 181.99a18 18 0 0 0 2.394-11.84 18 18 0 0 0-.779-3.348l12.096-10.658a25.3 25.3 0 0 0 13.862 5.313 25.25 25.25 0 0 0 14.444-3.394 25.5 25.5 0 0 0 10.095-10.942 25.7 25.7 0 0 0 2.299-14.754 25.63 25.63 0 0 0-6.281-13.53 25.35 25.35 0 0 0-12.717-7.686 25.2 25.2 0 0 0-14.812.782 25.4 25.4 0 0 0-11.849 8.982l-33.978-11.924a17.98 17.98 0 0 0-3.703-11.92 17.75 17.75 0 0 0-10.543-6.576 17.66 17.66 0 0 0-12.248 1.97 17.86 17.86 0 0 0-7.984 9.555 18 18 0 0 0 .167 12.488 17.85 17.85 0 0 0 8.239 9.335 17.66 17.66 0 0 0 12.295 1.635 17.76 17.76 0 0 0 10.363-6.861l33.167 11.627a25.7 25.7 0 0 0-.383 9.297 25.7 25.7 0 0 0 2.934 8.824l-11.449 10.152a17.7 17.7 0 0 0-11.426-3.69 17.7 17.7 0 0 0-11.15 4.465 17.93 17.93 0 0 0-5.79 10.583 18 18 0 0 0 2.212 11.876 17.8 17.8 0 0 0 9.203 7.753 17.66 17.66 0 0 0 12 .094 17.8 17.8 0 0 0 9.322-7.608" clip-rule="evenodd"/></svg>
